X:1934
T:Bourrée tournee a trois
C:trad.
A:Morvan
O:France
M:3/8
L:1/16
Q:1/8=240
K:C
G2|c2d2e2|f2e2d2|c2Bcdc|B2A2G2|c2d2e2|f2e2d2|c2BcdB|c4:|
|:g2|fed2f2|edc2e2|dcB2c2|d4g2|fed2f2|edc2e2|dcB2d2|c4:||


